images/payment/payment-4.svg

<svg width="150" height="80" viewBox="0 0 150 80" fill="none" xmlns="http://www.w3.org/2000/svg">
<rect x="0.582031" y="0.885742" width="149.063" height="78.9159" rx="23.2911" fill="url(#paint0_linear_1181_25400)"/>
<path d="M63.7129 21.9297H86.5108V62.2645H63.7129V21.9297Z" fill="#FF5F00"/>
<path d="M64.7447 41.2203C64.7447 32.8174 68.487 25.3641 74.2391 20.5413C70.0118 17.034 64.6756 14.915 58.8541 14.915C45.0621 14.915 33.9043 26.6792 33.9043 41.2203C33.9043 55.7612 45.0621 67.5256 58.8537 67.5256C64.6753 67.5256 70.0115 65.4067 74.2391 61.899C68.487 57.1495 64.7447 49.6233 64.7447 41.2203Z" fill="#EB001B"/>
<path d="M116.324 41.2203C116.324 55.7612 104.682 67.5256 90.2904 67.5256C84.2159 67.5256 78.6476 65.4067 74.2363 61.899C80.3109 57.0766 84.1437 49.6233 84.1437 41.2203C84.1437 32.8174 80.2384 25.3641 74.2363 20.5413C78.6473 17.034 84.2159 14.915 90.2904 14.915C104.682 14.915 116.324 26.7524 116.324 41.2203Z" fill="#F79E1B"/>
<defs>
<linearGradient id="paint0_linear_1181_25400" x1="75.1137" y1="0.885742" x2="75.1137" y2="79.8016" gradientUnits="userSpaceOnUse">
<stop stop-color="white"/>
<stop offset="1" stop-color="#FFF5EF"/>
</linearGradient>
</defs>
</svg>

<svg width="150" height="80" fill="none" xmlns="http://www.w3.org/2000/svg"><rect x=".582" y=".886" width="149.063" height="78.916" rx="23.291" fill="url(#paint0_linear_1181_25400)"/><path d="M63.713 21.93H86.51v40.335H63.713V21.93z" fill="#FF5F00"/><path d="M64.745 41.22c0-8.403 3.742-15.856 9.494-20.679-4.227-3.507-9.563-5.626-15.385-5.626-13.792 0-24.95 11.764-24.95 26.305s11.158 26.306 24.95 26.306c5.821 0 11.157-2.12 15.385-5.627-5.752-4.75-9.494-12.276-9.494-20.679z" fill="#EB001B"/><path d="M116.324 41.22c0 14.541-11.642 26.306-26.034 26.306-6.074 0-11.642-2.12-16.054-5.627 6.075-4.822 9.908-12.276 9.908-20.679 0-8.403-3.906-15.856-9.908-20.679 4.411-3.507 9.98-5.626 16.054-5.626 14.392 0 26.034 11.837 26.034 26.305z" fill="#F79E1B"/><defs><linearGradient id="paint0_linear_1181_25400" x1="75.114" y1=".886" x2="75.114" y2="79.802" gradientUnits="userSpaceOnUse"><stop stop-color="#fff"/><stop offset="1" stop-color="#FFF5EF"/></linearGradient></defs></svg>
